
(
//create the manger and start the game loop at 20 frames per second
//~gameloop = EntityManager(SpatialHashing(40, 40, 1)).play(0.05);
~gameloop = GameLoop(40, 40, 1).play(0.05);
~gameloop.addCamera;

f = { var position, radius, width;

	width = ~gameloop.center[0]*2;
	position = RealVector2D[rrand(2.0, width), rrand(2.0, width)];
	radius = 0.4; 

	~entity = SimpleCircle(
		//~gameloop, 
		~gameloop.world, 
		position, 
		radius, 
		maxSpeed: 40, 
		//collisionFunc: {arg entList, entity; entity.remove; entList.do{arg i; i.remove}}
	); 
	//~entity.collisionType_(\mobile);
	~entity.activate;
};
);

50.do{f.value;};
f.value;
~gameloop.entManager.clear;
~entity.remove

~gameloop.repManager.cameraEntity.moveFwd(4);
~gameloop.repManager.cameraEntity.moveBack(4);
~gameloop.repManager.cameraEntity.goto(RealVector2D[rrand(5.0, 35.0),rrand(6.0, 30.0)]);
~gameloop.repManager.cameraEntity.rotateLeft(0.1pi);
~gameloop.repManager.cameraEntity.rotateRight(0.1pi);
~gameloop.repManager.cameraEntity.reset;
~gameloop.repManager.repList

(
r = Routine{ //test
	loop{
	~gameloop.repManager.cameraEntity.rotateRight(0.05pi);
	0.05.wait;
	};
}.play;
)

r.stop

~gameloop.clear;
~gameloop.removeCamera;
~gameloop.stop
~gameloop.play
~gameloop.world.freeList;
~gameloop.mobList;
~gameloop.staticList;
~routiniaris.stop

~gameloop.mainRoutine.play
~gameloop.mainRoutine.stop

(
{
	var entPos, newPos, theta, thetaSin, thetaCos, rad, x,y;
	var xMinusx, yMinusy;
	var position;

	position = RealVector2D[25, 23];
	entPos = RealVector2D[24,20];
	theta = RealVector2D[23, 10].norm.debug("theta");
	thetaSin = theta.sin;
	thetaCos = theta.cos;
	xMinusx = entPos[0] - position[0];
	yMinusy = entPos[1] - position[1];
	x = (xMinusx * thetaCos) - (yMinusy * thetaSin);
	y = (xMinusx * thetaSin) + (yMinusy * thetaCos);
	RealVector2D[x,y];
}.value
)

CmdPeriod.run
